X:1
T:Forty Long Miles
M:3/4
L:1/4
K:Bb
 F| F d c| B- A G| F G F| F- E D| E G G| G F D| B, F F| F2 F3.99999962500005/11.9999985000002 F3.99999962500005/11.9999985000002 F3.99999962500005/11.9999985000002|\
 G3/2 A/2 B| A- G F| B c d| F2 c3.99999962500005/11.9999985000002 c3.99999962500005/11.9999985000002 c3.99999962500005/11.9999985000002|\
 c2 B| A G A| B2||
